icons/filled/motorbike.svg

<svg xmlns="http://www.w3.org/2000/svg" width="24" height="24" viewBox="0 0 24 24" fill="currentColor"><path d="M15 5a1 1 0 0 1 .894 .553l3.225 6.449l.08 .003a4 4 0 1 1 -4.199 3.995l.005 -.2a4 4 0 0 1 2.111 -3.33l-.557 -1.115l-3.352 3.352a1 1 0 0 1 -.707 .293h-3.626q .124 .481 .126 1a4 4 0 1 1 -8 0l.005 -.2a4 4 0 0 1 6.33 -3.049l1.749 -1.751h-3.084a1 1 0 0 1 -.993 -.883l-.007 -.117a1 1 0 0 1 1 -1h9.381l-1 -2h-1.381a1 1 0 0 1 -.993 -.883l-.007 -.117a1 1 0 0 1 1 -1z"/></svg>

<svg xmlns="http://www.w3.org/2000/svg" width="24" height="24" fill="currentColor"><path d="M15 5a1 1 0 0 1 .894.553l3.225 6.449.08.003A4 4 0 1 1 15 16l.005-.2a4 4 0 0 1 2.111-3.33l-.557-1.115-3.352 3.352A1 1 0 0 1 12.5 15H8.874q.124.481.126 1a4 4 0 1 1-8 0l.005-.2a4 4 0 0 1 6.33-3.049L9.084 11H6a1 1 0 0 1-.993-.883L5 10a1 1 0 0 1 1-1h9.381l-1-2H13a1 1 0 0 1-.993-.883L12 6a1 1 0 0 1 1-1z"/></svg>
